gama.ui.shared/icons_svg/dark/gaml/_rgb.svg

<?xml version="1.0" encoding="UTF-8" standalone="no"?>
<!DOCTYPE svg PUBLIC "-//W3C//DTD SVG 1.1//EN" "http://www.w3.org/Graphics/SVG/1.1/DTD/svg11.dtd">
<svg xmlns:dc="http://purl.org/dc/elements/1.1/" xmlns:xl="http://www.w3.org/1999/xlink" version="1.1" xmlns="http://www.w3.org/2000/svg" viewBox="-630.98274 -2807.737 24 18" width="24" height="18">
  <defs/>
  <g id="SOURCES" stroke-dasharray="none" stroke="none" stroke-opacity="1" fill="none" fill-opacity="1">
    <title>SOURCES</title>
    <g id="SOURCES_New">
      <title>New</title>
      <g id="Group_10474">
        <g id="Graphic_10298"/>
        <g id="Group_10299">
          <title>palette</title>
          <g id="Graphic_10300">
            <path d="M -623.98274 -2805.037 C -627.46174 -2805.037 -630.28274 -2802.216 -630.28274 -2798.737 C -630.28274 -2795.258 -627.46174 -2792.437 -623.98274 -2792.437 L -623.63274 -2792.437 C -623.38074 -2792.437 -623.16374 -2792.605 -623.10074 -2792.85 C -623.00974 -2793.2 -623.09374 -2793.557 -623.31074 -2793.816 L -624.59874 -2795.363 C -624.76674 -2795.566 -624.66174 -2795.881 -624.39574 -2795.93 L -620.13974 -2796.784 C -618.70474 -2797.071 -617.67574 -2798.331 -617.67574 -2799.787 C -617.67574 -2802.685 -620.02774 -2805.037 -622.92574 -2805.037 L -623.97574 -2805.037 Z M -623.68874 -2795.356 L -622.77874 -2794.264 C -622.41474 -2793.83 -622.28174 -2793.249 -622.42174 -2792.703 C -622.56874 -2792.129 -623.06574 -2791.737 -623.63974 -2791.737 L -623.98974 -2791.737 C -627.84674 -2791.737 -630.98274 -2794.873 -630.98274 -2798.737 C -630.98274 -2802.601 -627.84674 -2805.737 -623.98274 -2805.737 L -622.93274 -2805.737 C -619.64974 -2805.737 -616.98274 -2803.07 -616.98274 -2799.787 C -616.98274 -2797.995 -618.24974 -2796.448 -620.00674 -2796.098 L -623.68174 -2795.363 Z M -619.78274 -2800.137 C -619.39774 -2800.137 -619.08274 -2800.452 -619.08274 -2800.837 C -619.08274 -2801.222 -619.39774 -2801.537 -619.78274 -2801.537 C -620.16774 -2801.537 -620.48274 -2801.222 -620.48274 -2800.837 C -620.48274 -2800.452 -620.16774 -2800.137 -619.78274 -2800.137 Z M -622.58274 -2802.237 C -622.19774 -2802.237 -621.88274 -2802.552 -621.88274 -2802.937 C -621.88274 -2803.322 -622.19774 -2803.637 -622.58274 -2803.637 C -622.96774 -2803.637 -623.28274 -2803.322 -623.28274 -2802.937 C -623.28274 -2802.552 -622.96774 -2802.237 -622.58274 -2802.237 Z M -626.08274 -2801.537 C -625.69774 -2801.537 -625.38274 -2801.852 -625.38274 -2802.237 C -625.38274 -2802.622 -625.69774 -2802.937 -626.08274 -2802.937 C -626.46774 -2802.937 -626.78274 -2802.622 -626.78274 -2802.237 C -626.78274 -2801.852 -626.46774 -2801.537 -626.08274 -2801.537 Z M -628.18274 -2798.737 C -627.79774 -2798.737 -627.48274 -2799.052 -627.48274 -2799.437 C -627.48274 -2799.822 -627.79774 -2800.137 -628.18274 -2800.137 C -628.56774 -2800.137 -628.88274 -2799.822 -628.88274 -2799.437 C -628.88274 -2799.052 -628.56774 -2798.737 -628.18274 -2798.737 Z" fill="#999"/>
          </g>
        </g>
      </g>
    </g>
  </g>
</svg>

<svg height="18" viewBox="-630.983 -2807.737 24 18" width="24" xmlns="http://www.w3.org/2000/svg"><path d="m-623.98274-2805.037c-3.479 0-6.3 2.821-6.3 6.3s2.821 6.3 6.3 6.3h.35c.252 0 .469-.168.532-.413.091-.35.007-.707-.21-.966l-1.288-1.547c-.168-.203-.063-.518.203-.567l4.256-.854c1.435-.287 2.464-1.547 2.464-3.003 0-2.898-2.352-5.25-5.25-5.25h-1.05zm.294 9.681.91 1.092c.364.434.497 1.015.357 1.561-.147.574-.644.966-1.218.966h-.35c-3.857 0-6.993-3.136-6.993-7s3.136-7 7-7h1.05c3.283 0 5.95 2.667 5.95 5.95 0 1.792-1.267 3.339-3.024 3.689l-3.675.735zm3.906-4.781c.385 0 .7-.315.7-.7s-.315-.7-.7-.7-.7.315-.7.7.315.7.7.7zm-2.8-2.1c.385 0 .7-.315.7-.7s-.315-.7-.7-.7-.7.315-.7.7.315.7.7.7zm-3.5.7c.385 0 .7-.315.7-.7s-.315-.7-.7-.7-.7.315-.7.7.315.7.7.7zm-2.1 2.8c.385 0 .7-.315.7-.7s-.315-.7-.7-.7-.7.315-.7.7.315.7.7.7z" fill="#999"/></svg>
